packages/admin/admin-icons/icons/ssg-running.svg

<svg xmlns="http://www.w3.org/2000/svg" width="16" height="16" viewBox="0 0 16 16"><path fill="#242424" fill-rule="evenodd" d="M5.912,8.99907563 L5.48346098,10 L8,9.999 L7.999,9.99907563 L1,10 L1,14 L7.999,13.9990756 L7.999,14.9990756 L0.5,15 C0.223857625,15 3.38176876e-17,14.7761424 0,14.5 L0,9.5 C-3.38176876e-17,9.22385763 0.223857625,9 0.5,9 L5.912,8.99907563 Z M15.5,9 C15.7761424,9 16,9.22385763 16,9.5 L16,14.5 C16,14.7761424 15.7761424,15 15.5,15 L9.659,14.9990756 L10.087,13.9990756 L15,14 L15,10 L11.802,9.99907563 L12.231,8.99907563 L15.5,9 Z M10,2 L10,6.999 L12,7 L9,14 L9,9 L7,9 L10,2 Z M4,11 L4,13 L2,13 L2,11 L4,11 Z M9.34,0.999075631 L8.912,1.99907563 L1,2 L1,6 L7.197,5.99907563 L6.769,6.99907563 L0.5,7 C0.223857625,7 3.38176876e-17,6.77614237 0,6.5 L0,1.5 C-3.38176876e-17,1.22385763 0.223857625,1 0.5,1 L9.34,0.999075631 Z M15.5,1 C15.7761424,1 16,1.22385763 16,1.5 L16,6.5 C16,6.77614237 15.7761424,7 15.5,7 L13.088,6.99907563 L13.5162142,6.00075798 L11,6 L15,6 L15,2 L10.999,1.99907563 L10.999,0.999075631 L15.5,1 Z M4,3 L4,5 L2,5 L2,3 L4,3 Z"/></svg>

<svg width="16" height="16" fill="none" viewBox="0 0 16 16">
  <path fill="#242424" d="M.5 1.001h8.84l-.428 1H1v4h6.198l-.429 1H.5a.5.5 0 0 1-.5-.5v-5a.5.5 0 0 1 .5-.5Zm13.016 5.001L11 6h4V2h-4V1h4.5a.5.5 0 0 1 .5.5v5a.5.5 0 0 1-.5.5h-2.412l.428-1ZM.5 9.001h5.412l-.429 1H1v4h7v1H.5a.5.5 0 0 1-.5-.5v-5a.5.5 0 0 1 .5-.5Z M5.483 10.001 8 10v.001H5.483Zm10.017-1h-3.27l-.428 1H15v4h-4.912l-.429 1H15.5a.5.5 0 0 0 .5-.5v-5a.5.5 0 0 0-.5-.5Zm-11.5-4v-2H2v2h2Zm0 8v-2H2v2h2Z M10 2.001v5h2l-3 7v-5H7l3-7Z"/>
</svg>
